assets/components_previews/media/light/video.svg

<svg xmlns="http://www.w3.org/2000/svg" width="320" height="232" fill="none" viewBox="0 0 320 232"><path fill="#AA99EC" d="M177.067 112.299c-.007-.609-.011-.914-.206-1.107s-.502-.192-1.117-.192h-31.493c-.615 0-.923 0-1.117.192-.195.193-.199.498-.206 1.107-.014 1.107-.014 2.307-.014 3.606v.19c0 3.651 0 6.519.301 8.758.309 2.294.954 4.115 2.384 5.545 1.43 1.431 3.251 2.076 5.545 2.384 2.239.301 5.107.301 8.758.301h.191c3.651 0 6.519 0 8.758-.301 2.294-.308 4.115-.953 5.545-2.384 1.43-1.43 2.075-3.251 2.384-5.545.301-2.239.301-5.107.301-8.758v-.19c0-1.299 0-2.499-.014-3.606" opacity=".4"/><path fill="#AA99EC" d="M154.26 98.976c.528-.02.792-.03.893.141s-.035.399-.306.857l-4.083 6.876c-.237.398-.355.597-.546.707s-.424.109-.887.109H143.9c-.35 0-.525 0-.625-.116s-.074-.285-.024-.622c.292-1.963.914-3.889 2.352-5.328 1.431-1.43 3.251-2.075 5.546-2.383a33 33 0 0 1 3.111-.24m6.045-.063c-.462.001-.693.002-.883.11s-.309.306-.546.7l-4.159 6.932c-.269.448-.403.671-.307.841.095.169.356.169.879.169h5.751c.459 0 .689 0 .879-.108.191-.107.31-.304.547-.696l3.877-6.409c.381-.63.571-.944.436-1.195-.136-.252-.498-.266-1.223-.293-1.749-.066-3.502-.056-5.251-.051m11.646 1.075c-.509-.21-.764-.315-1.056-.22-.291.094-.453.357-.777.883l-3.69 5.998c-.277.449-.415.674-.32.845.096.171.36.171.888.171h9.105c.35 0 .525 0 .625-.116s.074-.285.024-.622c-.291-1.963-.914-3.889-2.352-5.328a7.4 7.4 0 0 0-2.447-1.611m-7.029 20.836c-.253 1.044-1.446 1.782-3.832 3.259-2.307 1.427-3.46 2.14-4.39 1.853a2.3 2.3 0 0 1-1.017-.654c-.683-.75-.683-2.206-.683-5.116 0-2.911 0-4.367.683-5.117a2.3 2.3 0 0 1 1.017-.654c.93-.287 2.083.427 4.39 1.854 2.386 1.476 3.579 2.214 3.832 3.259.104.431.104.884 0 1.316"/></svg>

<svg width="320" height="232" viewBox="0 0 320 232" fill="none" xmlns="http://www.w3.org/2000/svg">
<path opacity="0.4" d="M177.067 112.299C177.06 111.69 177.056 111.385 176.861 111.192C176.667 111 176.359 111 175.744 111H144.251C143.636 111 143.328 111 143.134 111.192C142.939 111.385 142.935 111.69 142.928 112.299C142.914 113.406 142.914 114.606 142.914 115.905V116.095C142.914 119.746 142.914 122.614 143.215 124.853C143.524 127.147 144.169 128.968 145.599 130.398C147.029 131.829 148.85 132.474 151.144 132.782C153.383 133.083 156.251 133.083 159.902 133.083H160.093C163.744 133.083 166.612 133.083 168.851 132.782C171.145 132.474 172.966 131.829 174.396 130.398C175.826 128.968 176.471 127.147 176.78 124.853C177.081 122.614 177.081 119.746 177.081 116.095V115.905C177.081 114.606 177.081 113.406 177.067 112.299Z" fill="#AA99EC"/>
<path d="M154.26 98.9762C154.788 98.9566 155.052 98.9468 155.153 99.117C155.254 99.2872 155.118 99.516 154.847 99.9737L150.764 106.85C150.527 107.248 150.409 107.447 150.218 107.557C150.026 107.666 149.794 107.666 149.331 107.666H143.9C143.55 107.666 143.375 107.666 143.275 107.55C143.176 107.434 143.201 107.265 143.251 106.928C143.543 104.965 144.165 103.039 145.603 101.6C147.034 100.17 148.854 99.525 151.149 99.2165C152.075 99.092 153.108 99.019 154.26 98.9762Z" fill="#AA99EC"/>
<path d="M160.305 98.9139C159.843 98.9152 159.612 98.9158 159.422 99.0239C159.231 99.1321 159.113 99.3296 158.876 99.7245L154.717 106.656C154.448 107.104 154.314 107.327 154.41 107.497C154.505 107.666 154.766 107.666 155.289 107.666H161.04C161.499 107.666 161.729 107.666 161.919 107.558C162.11 107.451 162.229 107.254 162.466 106.862L166.343 100.453C166.724 99.8237 166.914 99.5092 166.779 99.2576C166.643 99.0061 166.281 98.9923 165.556 98.9649C163.807 98.8986 162.054 98.9089 160.305 98.9139Z" fill="#AA99EC"/>
<path d="M171.951 99.9885C171.442 99.7788 171.187 99.6739 170.895 99.7687C170.604 99.8634 170.442 100.126 170.118 100.652L166.428 106.65C166.151 107.099 166.013 107.324 166.108 107.495C166.204 107.666 166.468 107.666 166.996 107.666H176.101C176.451 107.666 176.626 107.666 176.726 107.55C176.826 107.434 176.8 107.265 176.75 106.928C176.459 104.965 175.836 103.039 174.398 101.6C173.683 100.886 172.871 100.367 171.951 99.9885Z" fill="#AA99EC"/>
<path d="M164.922 120.825C164.669 121.869 163.476 122.607 161.09 124.084C158.783 125.511 157.63 126.224 156.7 125.937C156.316 125.819 155.965 125.594 155.683 125.283C155 124.533 155 123.077 155 120.167C155 117.256 155 115.8 155.683 115.05C155.965 114.74 156.316 114.514 156.7 114.396C157.63 114.109 158.783 114.823 161.09 116.25C163.476 117.726 164.669 118.464 164.922 119.509C165.026 119.94 165.026 120.393 164.922 120.825Z" fill="#AA99EC"/>
</svg>
